X:1
T:Title
%%score { ( 1 3 ) | ( 2 4 ) }
L:1/8
Q:1/4=100
M:4/4
K:Bb
V:1 treble nm="Grand Piano"
V:3 treble 
V:2 bass 
V:4 bass 
V:1
 [DF]2 [B,D]>[CE] [DF]3 [DF] | G^FG[EA] [DB]4 | AAAB c4 | [DB][DB][DB][Ec] [Fd]4 | %4
w: C.~Austin~Miles * * * *||||
 [DF]2 [B,D]>[CE] [DF]3 [DF] | GAB[Gc] [^Fd]2 e2 | d3 c B2 [CA]2 |[M:7/8] [DB]-[DB]-[DB]- [DB]3 z | %8
w: ||||
[M:1/8] =E |[M:4/4] F3 =E F3 E | F2 F2 z4 | [DB]2 [Fd]2 [Ec]2 [DB]2 | A6 z2 | c2 e2 d2 c2 | B6 z2 | %15
w: |||||||
 [DB]2 [Fd]2 [Ec]2 [DB]2 | [EG]2 [Ge]2 [Fd]2 c2 | B2 B2 B2 A2 | [DB]6 z2 |] %19
w: ||||
V:2
 [B,,B,]2 [B,,F,]>[B,,F,] [B,,B,]3 [B,,B,] | [E,B,E][E,A,E][E,B,E][C,F,] [B,,F,]4 | %2
 [F,E][F,CE][F,CE][F,B,E] [F,A,E]4 | [B,,F,][B,,F,][B,,F,][B,,F,] [B,,B,]4 | %4
 [B,,B,]2 [B,,F,]>[B,,F,] [B,,B,]3 [B,,B,] | [E,B,E][E,A,E][E,G,E][E,G,] [D,A,]2 [E,G,E]2 | %6
 [F,B,F]3 [F,A,E] [F,D]2 [F,,F,]2 |[M:7/8] [B,,F,]-[B,,F,]-[B,,F,]- [B,,F,]3 z |[M:1/8] z | %9
[M:4/4] [F,,F,]3 [=E,,=E,] [F,,F,]3 [F,,E,] | z [E,,E,][C,,C,][A,,,A,,] [F,,,F,,]F,[F,=E][F,_E] | %11
 [B,,F,]2 [B,,B,]2 [B,,B,]2 [B,,B,]2 | [F,CE][F,C][F,C][F,C] [F,C][F,CE][F,CE][F,CE] | %13
 [F,A,F]2 [F,A,F]2 [F,B,F]2 [F,A,E]2 | [B,,F,][B,,F,][B,,F,][B,,F,] [B,,F,]F,F,F, | %15
 B,,2 [B,,B,]2 [B,,B,]2 [B,,B,]2 | [E,B,]2 [C,C]2 [D,B,]2 [E,G,E]2 | %17
 [F,B,D]2 [^F,_D=E]2 [=F,=DF]2 [F,C_E]2 | [B,,B,]6 z2 |] %19
V:3
 x8 | x8 | x8 | x8 | x8 | x8 | x8 |[M:7/8] x7 |[M:1/8] x |[M:4/4] x8 | %10
 z [A,CE][A,CE][A,CE] [A,CEF]FGA | x8 | z EEE EFAB | x8 | DDDD DF[=EG][_EA] | x8 | x8 | x8 | x8 |] %19
V:4
 x8 | x8 | x8 | x8 | x8 | x8 | x8 |[M:7/8] x7 |[M:1/8] x |[M:4/4] x8 | [F,,F,]4 z4 | x8 | x8 | x8 | %14
 x8 | x8 | x8 | x8 | x8 |] %19

